assets/img/icons/ui/support.svg

<?xml version="1.0" encoding="utf-8"?>
<!-- Generated by IcoMoon.io -->
<!DOCTYPE svg PUBLIC "-//W3C//DTD SVG 1.1//EN" "http://www.w3.org/Graphics/SVG/1.1/DTD/svg11.dtd">
<svg version="1.1" xmlns="http://www.w3.org/2000/svg" xmlns:xlink="http://www.w3.org/1999/xlink" width="32" height="32" viewBox="0 0 32 32">
<path fill="rgb(0, 0, 0)" d="M7.101 12c-0.037-0.333-0.101-0.658-0.101-1 0-4.963 4.039-9 9.006-9 4.959 0 8.994 4.037 8.994 9s-4.035 9-8.994 9c-0.552 0-1 0.448-1 1s0.448 1 1 1c5.022 0 9.258-3.39 10.568-8h1.716c0.911 0 1.65-0.739 1.65-1.65v-2.7c0-0.911-0.739-1.65-1.65-1.65h-1.716c-1.31-4.609-5.546-8-10.568-8-6.068 0-11.006 4.936-11.006 11 0 0.338 0.021 0.67 0.051 1h2.051zM23 11c0-3.868-3.136-7-6.994-7-3.872 0-7.006 3.132-7.006 7 0 3.863 3.134 7 7.006 7 3.858 0 6.994-3.137 6.994-7zM31.666 30.848c-0.408-5.447-10.219-6.848-15.666-6.848-5.431 0-15.259 1.407-15.668 6.848-0.029 0.402-0.057 0.781-0.083 1.152h31.5c-0.026-0.37-0.054-0.75-0.083-1.152z"></path>
</svg>

<svg xmlns="http://www.w3.org/2000/svg" width="32" height="32" viewBox="0 0 32 32"><path d="M7.101 12C7.064 11.667 7 11.342 7 11c0-4.963 4.039-9 9.006-9C20.965 2 25 6.037 25 11s-4.035 9-8.994 9a1 1 0 0 0 0 2c5.022 0 9.258-3.39 10.568-8h1.716a1.65 1.65 0 0 0 1.65-1.65v-2.7A1.65 1.65 0 0 0 28.29 8h-1.716c-1.31-4.609-5.546-8-10.568-8C9.938 0 5 4.936 5 11c0 .338.021.67.051 1h2.051zM23 11c0-3.868-3.136-7-6.994-7A7 7 0 1 0 23 11zm8.666 19.848C31.258 25.401 21.447 24 16 24 10.569 24 .741 25.407.332 30.848L.249 32h31.5l-.083-1.152z"/></svg>
